app/src/assets/logo.svg

<svg width="100" height="100" viewBox="0 0 100 100" fill="none" xmlns="http://www.w3.org/2000/svg">
<g clip-path="url(#clip0_2_3)">
<path d="M37.5 23.2487H62.5V31.0612H37.5V23.2487Z" fill="#E1E3E9"/>
<path d="M40.625 15.4362H59.375V23.2487H40.625V15.4362Z" fill="#FFCB7C"/>
<path d="M40.625 15.4363C40.625 10.2586 44.8222 6.06129 50 6.06129C55.1777 6.06129 59.375 10.2586 59.375 15.4363H40.625Z" fill="#F5737F"/>
<path d="M33.5449 88.8733L39.8925 31.0611H60.1073L66.4549 88.8733L61.5 85L49.5 91L44.5 86.5L33.5449 88.8733Z" fill="white"/>
<path d="M35.668 69.5376H64.3322L62.1869 49.9997H37.8133L35.668 69.5376Z" fill="#F5737F"/>
<path d="M84.6216 96.9465L78.3716 87.7735C78.0079 87.2397 77.4036 86.9202 76.7576 86.9202H68.2053L67.2326 78.0613C67.1146 76.9888 66.1492 76.2152 65.0779 76.3329C64.0059 76.4507 63.232 77.4154 63.3496 78.4876L64.0147 84.5452L63.2418 83.4427C62.6807 82.6419 61.6139 82.38 60.7457 82.8286L49.2126 88.7901L46.4722 84.8749C45.9114 84.0735 44.8441 83.8104 43.9753 84.2598L35.5373 88.6215L37.4181 71.4906H55.5426C56.6211 71.4906 57.4958 70.6162 57.4958 69.5375C57.4958 68.4588 56.6211 67.5844 55.5426 67.5844H37.8474L39.5201 52.3501H60.4801L61.4315 61.0145C61.5494 62.0869 62.5145 62.8592 63.5861 62.7428C64.6582 62.625 65.432 61.6604 65.3145 60.5881L62.2869 33.0141H62.5002C63.5787 33.0141 64.4533 32.1397 64.4533 31.0609V23.2485C64.4533 22.1698 63.5787 21.2954 62.5002 21.2954H61.3283V15.436C61.3283 9.856 57.2717 5.20856 51.9534 4.28005V1.95311C51.9534 0.874409 51.0788 0 50.0003 0C48.9218 0 48.0472 0.874409 48.0472 1.95311V4.28005C42.7289 5.20876 38.6722 9.856 38.6722 15.436V21.2954H37.5004C36.4219 21.2954 35.5473 22.1698 35.5473 23.2485V31.0609C35.5473 32.1397 36.4219 33.0141 37.5004 33.0141H37.7136L31.7949 86.92H23.2426C22.5965 86.92 21.9924 87.2395 21.6286 87.7733L15.3786 96.9463C14.7712 97.8377 15.0015 99.0527 15.8929 99.6601C16.2296 99.8894 16.6122 99.9994 16.9909 99.9994C17.6151 99.9994 18.2286 99.7008 18.6065 99.1459L24.2751 90.8262H31.2721L28.6541 92.1795C27.7994 92.6213 27.394 93.6196 27.6979 94.5321L29.075 98.6637C29.3479 99.482 30.11 99.9998 30.9277 99.9998C31.1324 99.9998 31.3406 99.9672 31.5455 99.899C32.5688 99.558 33.1219 98.452 32.7809 97.4285L31.932 94.8821L44.2515 88.5141L51.7075 99.1662C52.3261 100.05 53.5438 100.265 54.4276 99.6463C55.3114 99.0277 55.5262 97.81 54.9077 96.9262L51.4727 92.0188L61.0231 87.0821L69.4941 99.167C69.874 99.7092 70.4797 99.9992 71.0951 99.9992C71.4822 99.9992 71.8732 99.8844 72.2144 99.6451C73.0976 99.026 73.3117 97.808 72.6925 96.9248L68.4176 90.8258H75.7248L81.3933 99.1455C81.7714 99.7004 82.3847 99.9992 83.0089 99.999C83.3874 99.999 83.7702 99.8891 84.1069 99.6598C84.9987 99.0529 85.229 97.8381 84.6216 96.9465V96.9465ZM47.7864 29.108V25.2018H52.2134V29.108H47.7864ZM39.4531 29.108V25.2018H40.625H43.8802V29.108H39.4531ZM56.1196 25.2018H59.3748H60.5467V29.108H56.1196V25.2018ZM49.9999 8.01441C53.4163 8.01441 56.2993 10.3355 57.159 13.4831H42.8406C43.7005 10.3355 46.5835 8.01441 49.9999 8.01441V8.01441ZM42.5781 17.3893H57.4217V21.2956H42.5781V17.3893ZM58.3571 33.0143L60.0512 48.4439H39.949L41.6431 33.0143H58.3571Z" fill="black"/>
<path d="M48.0468 58.6001V61.3344C48.0468 62.4131 48.9214 63.2876 49.9999 63.2876C51.0784 63.2876 51.953 62.4131 51.953 61.3344V58.6001C51.953 57.5213 51.0784 56.6469 49.9999 56.6469C48.9214 56.6469 48.0468 57.5213 48.0468 58.6001V58.6001Z" fill="black"/>
<path d="M49.9999 44.147C51.0784 44.147 51.953 43.2726 51.953 42.1939V39.4595C51.953 38.3808 51.0784 37.5064 49.9999 37.5064C48.9214 37.5064 48.0468 38.3808 48.0468 39.4595V42.1939C48.0468 43.2726 48.9214 44.147 49.9999 44.147Z" fill="black"/>
<path d="M48.0468 77.7406V80.4749C48.0468 81.5537 48.9214 82.4281 49.9999 82.4281C51.0784 82.4281 51.953 81.5537 51.953 80.4749V77.7406C51.953 76.6619 51.0784 75.7874 49.9999 75.7874C48.9214 75.7874 48.0468 76.6619 48.0468 77.7406V77.7406Z" fill="black"/>
<path d="M62.951 68.1559C62.5879 68.5191 62.3787 69.023 62.3787 69.5367C62.3787 70.0523 62.5877 70.5543 62.951 70.9176C63.3143 71.2828 63.8182 71.4898 64.3319 71.4898C64.8455 71.4898 65.3494 71.2828 65.7127 70.9176C66.0758 70.5543 66.285 70.0523 66.285 69.5367C66.285 69.023 66.076 68.5191 65.7127 68.1559C65.3494 67.7926 64.8455 67.5836 64.3319 67.5836C63.8182 67.5836 63.3143 67.7926 62.951 68.1559Z" fill="black"/>
</g>
<defs>
<clipPath id="clip0_2_3">
<rect width="100" height="100" fill="white"/>
</clipPath>
</defs>
</svg>

<svg width="100" height="100" viewBox="0 0 100 100" fill="none" xmlns="http://www.w3.org/2000/svg"><g clip-path="url(#clip0_2_3)"><path d="M37.5 23.249h25v7.812h-25V23.25z" fill="#E1E3E9"/><path d="M40.625 15.436h18.75v7.813h-18.75v-7.813z" fill="#FFCB7C"/><path d="M40.625 15.436a9.375 9.375 0 1118.75 0h-18.75z" fill="#F5737F"/><path d="M33.545 88.873l6.347-57.812h20.215l6.348 57.812L61.5 85l-12 6-5-4.5-10.955 2.373z" fill="#fff"/><path d="M35.668 69.538h28.664L62.187 50H37.813l-2.145 19.538z" fill="#F5737F"/><path d="M84.622 96.947l-6.25-9.174a1.953 1.953 0 00-1.614-.853h-8.553l-.972-8.859a1.954 1.954 0 00-3.883.427l.665 6.057-.773-1.102a1.953 1.953 0 00-2.496-.614L49.213 88.79l-2.74-3.915a1.953 1.953 0 00-2.498-.615l-8.438 4.361 1.881-17.13h18.125a1.953 1.953 0 000-3.907H37.847L39.52 52.35h20.96l.952 8.664a1.954 1.954 0 003.882-.426l-3.027-27.574h.213a1.953 1.953 0 001.953-1.953v-7.813a1.953 1.953 0 00-1.953-1.953h-1.172v-5.859c0-5.58-4.056-10.227-9.375-11.156V1.953a1.953 1.953 0 00-3.906 0V4.28c-5.318.929-9.375 5.576-9.375 11.156v5.86H37.5a1.953 1.953 0 00-1.953 1.953v7.812c0 1.079.875 1.953 1.953 1.953h.214l-5.92 53.906h-8.551c-.646 0-1.25.32-1.614.853l-6.25 9.173a1.953 1.953 0 003.228 2.2l5.668-8.32h6.997l-2.618 1.354a1.953 1.953 0 00-.956 2.352l1.377 4.132a1.954 1.954 0 003.706-1.236l-.849-2.546 12.32-6.368 7.456 10.652a1.953 1.953 0 103.2-2.24l-3.435-4.907 9.55-4.937 8.471 12.085a1.95 1.95 0 002.72.478 1.953 1.953 0 00.478-2.72l-4.274-6.1h7.307l5.668 8.32a1.95 1.95 0 002.714.515 1.952 1.952 0 00.515-2.713zM47.786 29.108v-3.906h4.427v3.906h-4.427zm-8.333 0v-3.906h4.427v3.906h-4.427zm16.667-3.906h4.427v3.906H56.12v-3.906zM50 8.014c3.416 0 6.3 2.322 7.159 5.47H42.841c.86-3.149 3.742-5.47 7.159-5.47zm-7.422 9.375h14.844v3.907H42.578v-3.907zm15.78 15.625l1.693 15.43H39.95l1.694-15.43h16.714z" fill="#000"/><path d="M48.047 58.6v2.734a1.953 1.953 0 003.906 0V58.6a1.953 1.953 0 00-3.906 0zM50 44.147a1.953 1.953 0 001.953-1.953v-2.735a1.953 1.953 0 00-3.906 0v2.735c0 1.079.874 1.953 1.953 1.953zM48.047 77.74v2.735a1.953 1.953 0 003.906 0V77.74a1.953 1.953 0 00-3.906 0zm14.904-9.584a1.968 1.968 0 00-.572 1.38c0 .516.209 1.018.572 1.382a1.96 1.96 0 001.38.572 1.96 1.96 0 001.382-.572c.363-.364.572-.866.572-1.381 0-.514-.209-1.018-.572-1.381a1.968 1.968 0 00-1.381-.572c-.514 0-1.018.209-1.381.572z" fill="#000"/></g><defs><clipPath id="clip0_2_3"><path fill="#fff" d="M0 0h100v100H0z"/></clipPath></defs></svg>
